X:1
T:Tomas Luis deVictoria  ( 1548ca-1611 )
T:Tenebrae factae sunt
T:( Responsorio )
%%score [ 1 2 3 4 ]
L:1/8
Q:1/4=120
M:2/2
K:F
V:1 treble-8 nm="Tenor I"
V:2 treble-8 nm="Tenor II"
V:3 bass nm="Bass I"
V:4 bass nm="Bass II"
V:1
 z4 d4- | d2 G2 G2 _e2- | ed/c/ B2 c4 | A4 z2 d2 | d4 e2 e2 | f6 d2 | _e4 d4- | d4 z2 A2 | c8 | %9
w: Te-|* ne- brae fa-|* * * * ctae|sunt, dum|cru- ci- fi-|xis sent|Je- sum|_ Ju-|dae-|
 B8 | z2 A2 A2 A2 | c2 F2 G4 | A4 z4 | z2 A2 d2 d2- | d2 c2 d2 A2 | B2 B2 (A3 B | c3 B A4) | %17
w: i:|et cir- ca|ho- ram no-|nam|ex- cla- ma-|* vit Je- sus|vo- ce ma- *||
 G4 z4 | z4 B4- | B2 A2 A4 | G4 z2 g2- | g2 ^f2 f4 | g4 z4 | z8 | z2 d2 g4 | f2 d2 e2 ^f2 | %26
w: gna|De-|* us me-|us De-|* us me-|us||ut quid|me de- re- li-|
 (g2 =f_e d2 e2) | d2 B2 c2 d2 | (d6 c2) | d8 || z8 | z8 | z8 | z8 | z4 z2 G2 | G2 =B2 (c3 d | %36
w: qui- * * * *|sti, de- re- li-|qui- *|sti,|||||e-|mi- sit spi- *|
 _e2 dc d4 | c2 B2 A2) A2 | =B8 || d8 | g6 e2 | e4 c2 (f2- | fedc B4) | G2 (g4 ^f2) | g2 (d4 c2 | %45
w: |* * * ri-|tum|Ex-|cla- mans|Je- sus vo-||ce ma- *|gna a- *|
 B2 A2 G4- | G2 ^FE F4) | G4 z4 | (B8 | c8) | B8 | z2 B2 _e2 d2 | _e4 d4- | d4 z2 G2 | d2 d2 _e4 | %55
w: ||it:|Pa-||ter,|in ma- nus|tu- as|* com-|men- do spi-|
 d2 B2 (c2 d2- | d2 cB c4) | d8 |] %58
w: ri- tum me- *||um.|
V:2
 z8 | B6 G2 | G2 _e4 e2 | d2 A2 A4 | =B2 B2 c4- | c4 d4 | c4 A2 A2 | (B6 AG | A2 G4 ^F2) | %9
w: |Te- ne-|brae fa- ctae|sunt, dum cru-|ci- fi- xis|_ sent|Je- sum Ju-|dae- * *||
 G2 d2 d2 d2 | (f3 e/d/ c2) d2 | (_e2 d4 c2) | d8- | d4 z2 d2 | g2 g4 ^f2 | g2 d2 =f2 f2 | %16
w: i: et cir- ca|ho- * * * ram|no- * *|nam|_ ex-|cla- ma- vit|Je- sus vo- ce|
 (ef g4 ^f2) | g4 z4 | z8 | z4 d4- | d2 c2 c4 | d8- | d8 | z8 | z4 z2 G2 | d4 c2 A2 | G2 A2 B2 G2 | %27
w: ma- * * *|gna||De-|* us me-|us|_||ut|quid me de-|re- li- qui- sti,|
 z2 G2 G2 B2 | (B4 A2 G2) | A8 || z4 d4- | d4 f4- | f2 e2 e4 | d4 (f3 e | d4) c4 | d4 z4 | %36
w: de- re- li-|qui- * *|sti,|Et|_ in-|* cli- na-|to ca- *|* pi-|te|
 z4 z2 B2 | c2 d2 _e2 d2 | d8 || z4 G4- | G4 c4- | c2 A2 A4 | F2 (f3 edc | B2) G2 A4 | G4 z4 | %45
w: e-|mi- sit spi- ri-|tum|Ex-|* cla-|* mans Je-|sus vo- * * *|* ce ma-|gna|
 z2 (d4 c2 | B2 AG A4) | G4 z4 | z4 (B4- | B2 AG A4) | B2 F2 G2 F2 | (G3 FGA B2- | B2 A2) B2 B2 | %53
w: a- *||it:|Pa-||ter, in ma- nus|tu- * * * *|* * as com-|
 A4 G4 | z2 D2 G2 G2 | B4 A2 F2 | G8 | A8 |] %58
w: men- do|com- men- do|spi- ri- tum|me-|um.|
V:3
 z8 | G,6 C,2 | C,2 G,4 G,2 | ^F,8 | z2 G,2 G,4 | A,2 A,2 B,4 | A,2 (G,4 ^F,2) | G,2 D,2 (F,4- | %8
w: |Te- ne-|brae fa- ctae|sunt,|dum cru-|ci- fi- xis|sent Je- *|sum Ju- dae-|
 F,2 E,D, C,4) | D,4 z2 D,2 | D,2 D,2 (F,3 E,/D,/ | C,2) D,2 _E,4 | D,2 A,2 B,2 B,2- | %13
w: |i: et|cir- ca ho- * *|* ram no-|nam ex- cla- ma-|
 B,2 A,2 B,2 A,2 | G,2 G,2 A,4 | G,4 z4 | z8 | z8 | z4 G,4- | G,2 ^F,2 F,4 | G,2 C,2 G,4 | %21
w: * vit Je- sus|vo- ce ma-|gna|||De-|* us me-|us De- us|
 A,4 D,2 A,2 | B,4 A,2 F,2 | G,2 A,2 (B,2 A,G, | A,4) G,4 | z8 | z2 D,2 G,4 | F,2 D,2 E,2 F,2 | %28
w: me- us ut|quid me de-|re- li- qui- * *|* sti,||ut quid|me de- re- li-|
 (G,2 F,E,F,D, G,2- | G,2 ^F,2) F,4 || G,8 | B,6 A,2 | A,4 G,4 | (B,6 A,G, | F,2) A,2 G,4 | %35
w: qui- * * * * *|* * sti,|Et|in- cli-|na- to|ca- * *|* pi- te|
 z2 D,2 E,2 F,2 | (G,3 A, B,4 | A,2 G,4) ^F,2 | G,8 || z8 | z8 | z8 | z8 | z8 | z8 | z8 | z8 | z8 | %48
w: e- mi- sit|spi- * *|* * ri-|tum||||||||||
 z8 | z8 | z8 | z8 | z8 | z8 | z8 | z8 | z8 | z8 |] %58
w: ||||||||||
V:4
 D,6 G,,2 | G,,4 _E,4- | E,4 C,4 | D,8 | z2 G,2 C,4 | F,2 F,2 B,,4 | C,4 D,4 | G,,4 D,4 | %8
w: Te- ne-|brae fa-|* ctae|sunt,|dum cru-|ci- fi- xis|sent Je-|sum Ju-|
 (C,3 B,, A,,4) | G,,8 | z8 | z8 | z2 D,2 G,2 G,2- | G,2 ^F,2 G,2 D,2 | _E,2 E,2 D,4 | %15
w: dae- * *|i:|||ex- cla- ma-|* vit Je- sus|vo- ce ma-|
 G,,4 z2 D,2 | C,4 D,4 | G,,4 z4 | G,,8 | D,8 | _E,8 | D,4 z2 D,2 | G,4 F,2 D,2 | %23
w: gna vo-|ce ma-|gna|De-|us|me-|us ut|quid me de-|
 E,2 F,2 (G,2 F,E, | D,E,F,D, _E,4) | D,2 B,,2 C,2 D,2 | (_E,2 D,C, B,,2 C,2) | D,2 G,,2 C,2 B,,2 | %28
w: re- li- qui- * *||sti, de- re- li-|qui- * * * *|sti, de- re- li-|
 (G,,A,,B,,C, D,2 _E,2) | D,8 || z4 G,,4- | G,,4 D,4- | D,2 C,2 C,4 | B,,4 D,4- | D,4 _E,4 | %35
w: qui- * * * * *|sti,|Et|_ in-|* cli- na-|to ca-|* pi-|
 D,4 z4 | z4 z2 G,,2 | A,,2 B,,2 C,2 D,2 | G,,8 || z8 | z8 | z8 | z8 | z8 | z4 (G,4- | %45
w: te|e-|mi- sit spi- ri-|tum||||||a-|
 G,2 F,2 _E,4) | D,8 | z8 | G,8 | F,8 | z2 B,,2 _E,2 D,2 | (_E,3 D, C,2 B,,2 | C,4) B,,2 G,,2 | %53
w: |it:||Pa-|ter,|in ma- nus|tu- * * *|* as com-|
 D,2 D,2 _E,4 | D,2 B,,2 C,4 | G,,2 G,2 F,2 D,2 | _E,8 | D,8 |] %58
w: men- do spi-|ri- tum me-|um. spi- ri- tum|me-|um.|

